images/decorative/skills/react-icon.svg

<svg width="512" height="512" fill="none" xmlns="http://www.w3.org/2000/svg"><path d="M420.967 175.647a343.472 343.472 0 0 0-16.482-5.194 312.242 312.242 0 0 0 2.546-11.241c12.477-60.562 4.319-109.351-23.536-125.415-26.71-15.403-70.392.657-114.509 39.05a342.309 342.309 0 0 0-12.749 11.698 310.405 310.405 0 0 0-8.484-7.835c-46.236-41.053-92.58-58.353-120.408-42.243-26.684 15.447-34.587 61.314-23.356 118.709a341.916 341.916 0 0 0 3.786 16.961c-6.559 1.862-12.891 3.847-18.95 5.959C34.619 194.994 0 224.613 0 255.336c0 31.731 37.163 63.557 93.623 82.855a290.703 290.703 0 0 0 13.844 4.33 334.318 334.318 0 0 0-4.021 18.276c-10.709 56.399-2.346 101.182 24.267 116.532 27.49 15.852 73.624-.442 118.547-39.711a290.405 290.405 0 0 0 10.684-9.846 335.734 335.734 0 0 0 13.842 12.628c43.513 37.445 86.49 52.565 113.079 37.172 27.461-15.897 36.386-64.005 24.799-122.536a289.587 289.587 0 0 0-3.071-13.685 306.41 306.41 0 0 0 9.522-2.974C473.811 318.929 512 287.49 512 255.336c0-30.834-35.735-60.652-91.033-79.689Zm-12.731 141.968a287.16 287.16 0 0 1-8.599 2.691c-6.48-20.513-15.226-42.327-25.928-64.863 10.213-22 18.62-43.535 24.919-63.915a319.108 319.108 0 0 1 15.219 4.801c47.38 16.31 76.281 40.425 76.281 59.007 0 19.793-31.212 45.487-81.892 62.279Zm-21.028 41.669c5.123 25.882 5.855 49.281 2.461 67.574-3.049 16.437-9.182 27.396-16.764 31.785-16.136 9.34-50.641-2.8-87.855-34.823a313.402 313.402 0 0 1-12.873-11.739c14.426-15.779 28.845-34.122 42.917-54.493 24.751-2.196 48.136-5.787 69.342-10.689a268.012 268.012 0 0 1 2.772 12.385Zm-212.656 97.745c-15.764 5.568-28.32 5.727-35.91 1.351-16.15-9.315-22.864-45.271-13.706-93.504a313.896 313.896 0 0 1 3.737-16.998c20.974 4.638 44.187 7.976 68.998 9.987 14.167 19.934 29.002 38.257 43.951 54.3a267.101 267.101 0 0 1-9.755 8.984c-19.864 17.364-39.771 29.684-57.315 35.88Zm-73.855-139.535c-24.965-8.533-45.583-19.623-59.715-31.725-12.7-10.875-19.11-21.672-19.11-30.433 0-18.644 27.795-42.424 74.153-58.586a315.1 315.1 0 0 1 17.623-5.546c6.407 20.841 14.812 42.63 24.954 64.664-10.273 22.361-18.797 44.498-25.267 65.583a269.413 269.413 0 0 1-12.638-3.957Zm24.757-168.518c-9.622-49.175-3.232-86.27 12.849-95.58 17.129-9.916 55.006 4.223 94.927 39.67a290.267 290.267 0 0 1 7.683 7.09c-14.876 15.974-29.576 34.159-43.617 53.975-24.08 2.232-47.13 5.817-68.322 10.618a319.816 319.816 0 0 1-3.52-15.773Zm220.854 54.534a694.957 694.957 0 0 0-15.57-25.605c16.336 2.065 31.988 4.806 46.686 8.161-4.413 14.142-9.913 28.929-16.387 44.087a762.075 762.075 0 0 0-14.729-26.643Zm-90.064-87.722c10.089 10.93 20.192 23.133 30.13 36.373a644.08 644.08 0 0 0-60.514-.014c9.947-13.117 20.138-25.304 30.384-36.359Zm-90.64 87.873a646.226 646.226 0 0 0-14.453 26.476c-6.37-15.106-11.819-29.96-16.27-44.303 14.608-3.269 30.186-5.942 46.418-7.968a642.53 642.53 0 0 0-15.695 25.794v.001Zm16.163 130.705c-16.771-1.871-32.583-4.407-47.187-7.585 4.522-14.599 10.091-29.771 16.595-45.202a642.623 642.623 0 0 0 14.515 26.492h.001a646.427 646.427 0 0 0 16.076 26.295Zm75.082 62.06c-10.366-11.185-20.706-23.557-30.805-36.866 9.803.385 19.798.582 29.956.582 10.436 0 20.752-.236 30.907-.688-9.971 13.549-20.037 25.94-30.058 36.972Zm104.397-115.633c6.843 15.598 12.612 30.69 17.192 45.04-14.845 3.386-30.873 6.114-47.76 8.141a763.752 763.752 0 0 0 15.717-26.053 694.844 694.844 0 0 0 14.851-27.128Zm-33.797 16.201c-8.003 13.877-16.22 27.125-24.562 39.629-15.193 1.087-30.889 1.646-46.887 1.646-15.933 0-31.432-.495-46.356-1.464a620.347 620.347 0 0 1-25.026-39.692h.002a615.052 615.052 0 0 1-21.846-41.252 620.581 620.581 0 0 1 21.78-41.275l-.002.002a614.497 614.497 0 0 1 24.826-39.522 619.783 619.783 0 0 1 46.621-1.752H256c15.851 0 31.485.605 46.708 1.766a659.26 659.26 0 0 1 24.669 39.39c8.028 13.867 15.403 27.606 22.072 41.08-6.649 13.706-14.007 27.583-22 41.444Zm45.12-244.248c17.146 9.887 23.813 49.762 13.041 102.051a288.929 288.929 0 0 1-2.301 10.179c-21.242-4.901-44.308-8.548-68.458-10.814-14.069-20.034-28.648-38.248-43.281-54.016a321.861 321.861 0 0 1 11.775-10.8c37.799-32.895 73.128-45.882 89.224-36.6ZM256 209.616c25.25 0 45.72 20.469 45.72 45.72 0 25.25-20.47 45.72-45.72 45.72s-45.72-20.47-45.72-45.72c0-25.251 20.47-45.72 45.72-45.72Z" fill="#00D8FF"/></svg>

<svg width="512" height="512" viewBox="0 0 512 512" fill="none" xmlns="http://www.w3.org/2000/svg">
<path d="M420.967 175.647C415.655 173.819 410.152 172.089 404.485 170.453C405.416 166.652 406.271 162.9 407.031 159.212C419.508 98.6498 411.35 49.8605 383.495 33.797C356.785 18.3942 313.103 34.4541 268.986 72.8476C264.744 76.5394 260.489 80.4482 256.237 84.5448C253.404 81.8344 250.575 79.2152 247.753 76.7099C201.517 35.6571 155.173 18.3568 127.345 34.4668C100.661 49.9143 92.7584 95.7808 103.989 153.176C105.074 158.72 106.341 164.381 107.775 170.137C101.216 171.999 94.8837 173.984 88.825 176.096C34.6187 194.994 0 224.613 0 255.336C0 287.067 37.1632 318.893 93.6233 338.191C98.0789 339.714 102.702 341.154 107.467 342.521C105.92 348.746 104.575 354.847 103.446 360.797C92.7375 417.196 101.1 461.979 127.713 477.329C155.203 493.181 201.337 476.887 246.26 437.618C249.811 434.514 253.374 431.223 256.944 427.772C261.571 432.228 266.191 436.445 270.786 440.4C314.299 477.845 357.276 492.965 383.865 477.572C411.326 461.675 420.251 413.567 408.664 355.036C407.779 350.566 406.75 345.999 405.593 341.351C408.833 340.393 412.014 339.405 415.115 338.377C473.811 318.929 512 287.49 512 255.336C512 224.502 476.265 194.684 420.967 175.647ZM408.236 317.615C405.436 318.542 402.564 319.438 399.637 320.306C393.157 299.793 384.411 277.979 373.709 255.443C383.922 233.443 392.329 211.908 398.628 191.528C403.865 193.043 408.949 194.642 413.847 196.329C461.227 212.639 490.128 236.754 490.128 255.336C490.128 275.129 458.916 300.823 408.236 317.615ZM387.208 359.284C392.331 385.166 393.063 408.565 389.669 426.858C386.62 443.295 380.487 454.254 372.905 458.643C356.769 467.983 322.264 455.843 285.05 423.82C280.784 420.149 276.487 416.229 272.177 412.081C286.603 396.302 301.022 377.959 315.094 357.588C339.845 355.392 363.23 351.801 384.436 346.899C385.48 351.112 386.408 355.244 387.208 359.284ZM174.552 457.029C158.788 462.597 146.232 462.756 138.642 458.38C122.492 449.065 115.778 413.109 124.936 364.876C125.985 359.352 127.234 353.678 128.673 347.878C149.647 352.516 172.86 355.854 197.671 357.865C211.838 377.799 226.673 396.122 241.622 412.165C238.356 415.319 235.103 418.321 231.867 421.149C212.003 438.513 192.096 450.833 174.552 457.029ZM100.697 317.494C75.7316 308.961 55.1141 297.871 40.9817 285.769C28.2829 274.894 21.8716 264.097 21.8716 255.336C21.8716 236.692 49.6669 212.912 96.0247 196.75C101.65 194.788 107.538 192.94 113.648 191.204C120.055 212.045 128.46 233.834 138.602 255.868C128.329 278.229 119.805 300.366 113.335 321.451C108.979 320.199 104.758 318.881 100.697 317.494ZM125.454 148.976C115.832 99.8008 122.222 62.7051 138.303 53.3965C155.432 43.4801 193.309 57.6188 233.23 93.0659C235.782 95.3316 238.343 97.7029 240.913 100.156C226.037 116.13 211.337 134.315 197.296 154.131C173.216 156.363 150.166 159.948 128.974 164.749C127.641 159.39 126.461 154.124 125.454 148.976ZM346.308 203.51C341.242 194.759 336.04 186.215 330.738 177.905C347.074 179.97 362.726 182.711 377.424 186.066C373.011 200.208 367.511 214.995 361.037 230.153C356.393 221.336 351.481 212.446 346.308 203.51ZM256.244 115.788C266.333 126.718 276.436 138.921 286.374 152.161C276.36 151.688 266.222 151.442 256 151.442C245.875 151.442 235.812 151.682 225.86 152.147C235.807 139.03 245.998 126.843 256.244 115.788ZM165.604 203.661C160.543 212.437 155.722 221.279 151.151 230.137C144.781 215.031 139.332 200.177 134.881 185.834C149.489 182.565 165.067 179.892 181.299 177.866C175.922 186.254 170.678 194.86 165.604 203.66V203.661ZM181.767 334.366C164.996 332.495 149.184 329.959 134.58 326.781C139.102 312.182 144.671 297.01 151.175 281.579C155.758 290.431 160.599 299.277 165.69 308.071H165.691C170.878 317.031 176.251 325.807 181.767 334.366ZM256.849 396.426C246.483 385.241 236.143 372.869 226.044 359.56C235.847 359.945 245.842 360.142 256 360.142C266.436 360.142 276.752 359.906 286.907 359.454C276.936 373.003 266.87 385.394 256.849 396.426ZM361.246 280.793C368.089 296.391 373.858 311.483 378.438 325.833C363.593 329.219 347.565 331.947 330.678 333.974C335.993 325.551 341.24 316.861 346.395 307.921C351.611 298.877 356.563 289.819 361.246 280.793ZM327.449 296.994C319.446 310.871 311.229 324.119 302.887 336.623C287.694 337.71 271.998 338.269 256 338.269C240.067 338.269 224.568 337.774 209.644 336.805C200.966 324.137 192.571 310.85 184.618 297.113H184.62C176.689 283.414 169.389 269.599 162.774 255.861C169.387 242.091 176.668 228.261 184.554 214.586L184.552 214.588C192.459 200.877 200.78 187.655 209.378 175.066C224.605 173.915 240.219 173.314 255.999 173.314H256C271.851 173.314 287.485 173.919 302.708 175.08C311.174 187.578 319.439 200.757 327.377 214.47C335.405 228.337 342.78 242.076 349.449 255.55C342.8 269.256 335.442 283.133 327.449 296.994ZM372.569 52.7458C389.715 62.6331 396.382 102.508 385.61 154.797C384.923 158.134 384.149 161.532 383.309 164.976C362.067 160.075 339.001 156.428 314.851 154.162C300.782 134.128 286.203 115.914 271.57 100.146C275.504 96.3614 279.433 92.7524 283.345 89.3467C321.144 56.4514 356.473 43.4637 372.569 52.7458ZM256 209.616C281.25 209.616 301.72 230.085 301.72 255.336C301.72 280.586 281.25 301.056 256 301.056C230.75 301.056 210.28 280.586 210.28 255.336C210.28 230.085 230.75 209.616 256 209.616Z" fill="#00D8FF"/>
</svg>
